X:924
T:Reel 924
M:4/4
K:Dmaj
L:1/8
F|D3F AFFG|Addc AddF|A,CDE FEFG| (3fed ec dBAF|A,FDF EFGE|ABce dBAG|F2FE FGAd|cAGE FDD|G|FDA,D FDAF|GEFD EA,A,G|FDAD FDAD|GEAG FDDG|FDAD FDAD|EA,CA, EA,EA|dAdA  (3Bcd AG|FAED A,DD|
